X:221
T: SETZT ZUSAMMEN DIE GEWEHRE
N: E1360
O: Europa, Mitteleuropa, Deutschland
R: Staende -, Soldaten -, Kriegs - Lied
M: 2/4
L: 1/8
K: Eb
 | E3B, | EB,EG | c2B2 |
e3d | cBAG | B2A2 |
F2F2 | F3F | B2A2 | G4 |
G2B2 | e3d | f2e2 | d2c2 |
A2F2 | d3c | B2A2 | c2B2 |
G3E | B3A | G2F2 | G4 |
G2B2 | e3d | f2e2 | d2c2 |
A2F2 | d3c | B2A2 | c2B2 |
G3E | B3A | G2F2 | G4

@@@ Tune index: 4905
